build-source/logos/machainesportbienetre.default.svg

<?xml version="1.0" encoding="UTF-8" standalone="no"?>
<!-- Created with Inkscape (http://www.inkscape.org/) -->

<svg
   xmlns:dc="http://purl.org/dc/elements/1.1/"
   xmlns:cc="http://creativecommons.org/ns#"
   xmlns:rdf="http://www.w3.org/1999/02/22-rdf-syntax-ns#"
   xmlns:svg="http://www.w3.org/2000/svg"
   xmlns="http://www.w3.org/2000/svg"
   xmlns:sodipodi="http://sodipodi.sourceforge.net/DTD/sodipodi-0.dtd"
   xmlns:inkscape="http://www.inkscape.org/namespaces/inkscape"
   width="169.33333mm"
   height="62.937412mm"
   viewBox="0 0 599.99998 223.00658"
   id="svg40595"
   version="1.1"
   inkscape:version="0.91 r"
   sodipodi:docname="machainesportbienetre.svg">
  <defs
     id="defs40597">
    <linearGradient
       x1="0"
       y1="0"
       x2="1"
       y2="0"
       gradientUnits="userSpaceOnUse"
       gradientTransform="matrix(-680.40512,-136.60556,136.60556,-680.40512,553.40801,903.86345)"
       spreadMethod="pad"
       id="linearGradient396">
      <stop
         style="stop-opacity:1;stop-color:#80d4ce"
         offset="0"
         id="stop398" />
      <stop
         style="stop-opacity:1;stop-color:#80d4ce"
         offset="0.08088737"
         id="stop400" />
      <stop
         style="stop-opacity:1;stop-color:#82b0e2"
         offset="0.9"
         id="stop402" />
      <stop
         style="stop-opacity:1;stop-color:#82b0e2"
         offset="1"
         id="stop404" />
    </linearGradient>
    <clipPath
       clipPathUnits="userSpaceOnUse"
       id="clipPath412">
      <path
         d="M 114.976,86.282 142.968,86.282 142.968,96.686 114.976,96.686 114.976,86.282 Z"
         id="path414"
         inkscape:connector-curvature="0" />
    </clipPath>
  </defs>
  <sodipodi:namedview
     id="base"
     pagecolor="#ffffff"
     bordercolor="#666666"
     borderopacity="1.0"
     inkscape:pageopacity="0.0"
     inkscape:pageshadow="2"
     inkscape:zoom="0.35"
     inkscape:cx="-143.57146"
     inkscape:cy="434.36036"
     inkscape:document-units="px"
     inkscape:current-layer="layer1"
     showgrid="false"
     fit-margin-top="0"
     fit-margin-left="0"
     fit-margin-right="0"
     fit-margin-bottom="0"
     inkscape:window-width="1680"
     inkscape:window-height="1000"
     inkscape:window-x="0"
     inkscape:window-y="0"
     inkscape:window-maximized="1" />
  <metadata
     id="metadata40600">
    <rdf:RDF>
      <cc:Work
         rdf:about="">
        <dc:format>image/svg+xml</dc:format>
        <dc:type
           rdf:resource="http://purl.org/dc/dcmitype/StillImage" />
        <dc:title></dc:title>
      </cc:Work>
    </rdf:RDF>
  </metadata>
  <g
     inkscape:label="Layer 1"
     inkscape:groupmode="layer"
     id="layer1"
     transform="translate(-25.714314,-743.71598)">
    <path
       d="M 375.52855,751.75399 C 361.03869,757.1341 347.87779,765.00064 336.11014,775.46077 L 336.11014,775.46077 C 324.55684,785.72799 315.23275,797.58137 308.18073,810.93519 L 308.18073,810.93519 305.71574,748.79601 305.11557,748.79601 227.13615,748.79601 210.30991,748.79601 189.19673,796.27386 C 184.09528,774.60338 181.3302,755.50507 179.80834,748.79601 L 179.80834,748.79601 166.51883,748.79601 87.767757,748.79601 87.146151,748.79601 25.714314,961.0638 26.335919,961.0638 101.143,961.0638 119.34106,961.0638 136.2959,894.9592 147.54912,961.0638 151.77175,961.0638 190.84721,961.0638 192.92637,961.0638 207.33049,926.57537 221.15587,894.16611 223.23503,961.0638 239.33249,961.0638 313.53941,961.0638 314.16101,961.0638 312.9178,929.74771 C 319.99125,938.72885 328.99382,946.61681 339.94695,953.39018 L 339.94695,953.39018 C 347.14901,957.67712 355.4228,960.91376 364.72546,963.25014 L 364.72546,963.25014 C 374.00668,965.56509 383.82377,966.72256 394.1553,966.72256 L 394.1553,966.72256 C 394.99125,966.72256 395.80577,966.67969 396.57742,966.65826 L 396.57742,966.65826 C 405.62286,966.18669 432.9521,963.67883 446.15587,950.47506 L 446.15587,950.47506 C 454.68688,954.6977 463.30363,958.21299 472.02755,960.80658 L 472.02755,960.80658 C 485.48854,964.75057 499.18531,966.72256 513.09642,966.72256 L 513.09642,966.72256 C 540.25418,966.72256 563.23217,959.26329 581.94466,944.40904 L 581.94466,944.40904 C 600.67858,929.51193 611.4388,910.28501 614.22531,886.81401 L 614.22531,886.81401 C 615.94009,872.43133 613.17501,860.14925 605.97295,849.98921 L 605.97295,849.98921 C 598.77089,839.85059 588.05355,833.1201 573.86378,829.84059 L 573.86378,829.84059 C 572.0847,829.45477 569.51253,828.87603 566.23303,828.10438 L 566.23303,828.10438 C 545.61286,823.53879 535.64573,818.26586 536.3745,812.28558 L 536.3745,812.28558 C 536.73889,809.11324 538.49654,806.62682 541.58314,804.80487 L 541.58314,804.80487 C 544.69117,803.04722 548.93524,802.14696 554.22961,802.14696 L 554.22961,802.14696 C 561.21731,802.14696 568.22645,803.58309 575.25703,806.41247 L 575.25703,806.41247 C 582.33048,809.28472 589.18959,813.42161 595.92008,818.82316 L 595.92008,818.82316 625.71431,763.28586 C 614.46109,756.81258 603.16501,751.98978 591.76175,748.79601 L 591.76175,748.79601 C 580.35849,745.5808 568.52654,743.9732 556.37308,743.9732 L 556.37308,743.9732 C 529.85836,743.9732 507.58771,751.15382 489.58256,765.4722 L 489.58256,765.4722 C 478.54369,774.19612 470.44138,784.54908 465.12558,796.4882 L 465.12558,796.4882 470.11986,754.43333 C 462.61772,750.87517 454.79405,748.19583 446.64887,746.39532 L 446.64887,746.39532 C 438.48225,744.59481 430.12272,743.71598 421.50597,743.71598 L 421.50597,743.71598 C 405.36564,743.71598 390.03984,746.39532 375.52855,751.75399 M 384.46681,881.19812 C 379.21531,875.11067 377.28619,866.85831 378.57227,856.05522 L 378.57227,856.05522 C 379.90122,844.7377 384.18816,835.97091 391.58313,829.26185 L 391.58313,829.26185 C 398.99954,822.59566 407.93781,819.33759 418.93381,819.33759 L 418.93381,819.33759 C 425.96439,819.33759 432.56627,820.79515 438.56799,823.6674 L 438.56799,823.6674 C 443.06927,825.81087 447.50626,828.96177 451.9218,832.99149 L 451.9218,832.99149 C 452.50054,843.92319 455.78005,853.54736 461.71746,861.60681 L 461.71746,861.60681 C 462.40337,862.59281 463.15358,863.5145 463.92523,864.41476 L 463.92523,864.41476 463.9038,864.43619 C 464.26819,864.88632 464.67545,865.33645 465.08271,865.78658 L 465.08271,865.78658 465.08271,865.74371 C 473.12072,874.5748 484.56684,880.89804 499.31392,884.5848 L 499.31392,884.5848 C 501.95038,885.16354 505.61572,885.99949 510.39565,887.09266 L 510.39565,887.09266 C 513.28934,887.69284 515.62572,888.29301 517.59771,888.91461 L 517.59771,888.91461 C 526.38594,891.27243 527.26476,893.30873 527.39337,895.30215 L 527.39337,895.30215 C 527.56484,897.42419 523.49225,905.71941 498.99239,898.83888 L 498.99239,898.83888 C 476.74318,892.55851 458.35221,873.97463 455.15844,870.56651 L 455.15844,870.56651 453.65801,871.59538 C 444.29105,878.1544 435.76004,882.99864 428.27933,885.95663 L 428.27933,885.95663 C 421.07728,888.78601 414.13243,890.2007 407.57342,890.2007 L 407.57342,890.2007 C 397.17759,890.2007 389.63258,887.28558 384.46681,881.19812"
       style="fill:url(#linearGradient396);stroke:none"
       id="path406"
       inkscape:connector-curvature="0" />
    <path
       inkscape:connector-curvature="0"
       id="path418"
       style="fill:#ffffff;fill-opacity:1;fill-rule:nonzero;stroke:none"
       d="M 271.03012,828.68097 271.03012,836.29029 257.31191,830.82444 243.59371,836.29029 243.59371,828.68097 257.31191,823.21512 271.03012,828.68097 Z M 232.29762,857.63924 C 232.29762,860.76871 229.7469,863.298 226.63886,863.298 223.5094,863.298 220.9801,860.76871 220.9801,857.63924 220.9801,854.50978 223.5094,851.98048 226.63886,851.98048 229.7469,851.98048 232.29762,854.50978 232.29762,857.63924 M 330.18988,848.14367 329.35393,848.14367 C 321.83035,848.14367 318.16502,850.50149 318.16502,855.36717 L 318.16502,880.44576 308.4551,880.44576 308.4551,855.36717 C 308.4551,844.09252 315.48568,838.36945 329.35393,838.36945 L 330.18988,838.36945 330.18988,848.14367 Z M 301.36021,870.67154 306.20446,870.67154 306.20446,880.44576 301.36021,880.44576 C 287.49197,880.44576 280.46139,874.7227 280.46139,863.44805 L 280.46139,822.22913 290.1713,822.22913 290.1713,831.55322 C 290.34278,836.09737 293.98668,838.32658 301.36021,838.32658 L 302.19617,838.32658 302.19617,848.1008 301.36021,848.1008 C 296.94467,848.1008 293.1936,847.52207 290.1713,846.36459 L 290.1713,863.44805 C 290.1713,868.31372 293.83664,870.67154 301.36021,870.67154 M 215.21417,855.36717 215.21417,880.44576 205.50425,880.44576 205.50425,855.36717 C 205.50425,850.50149 201.83892,848.14367 194.31534,848.14367 186.96324,848.14367 183.29791,850.39432 183.12643,855.00278 L 183.12643,880.44576 173.41651,880.44576 173.41651,838.36945 183.12643,838.36945 183.12643,840.1271 C 186.14872,838.94819 189.8998,838.36945 194.31534,838.36945 208.18359,838.36945 215.21417,844.09252 215.21417,855.36717 M 257.46196,848.14367 C 264.53541,848.14367 267.02183,850.24427 267.42909,854.53121 L 247.15187,854.53121 C 247.55913,850.24427 250.38851,848.14367 257.46196,848.14367 M 257.46196,838.36945 C 243.59371,838.36945 237.39908,844.09252 237.39908,855.36717 L 237.39908,863.44805 C 237.39908,874.7227 244.42966,880.44576 258.29791,880.44576 L 273.13072,880.44576 273.13072,870.67154 258.29791,870.67154 C 251.22446,870.67154 247.55913,868.59237 247.15187,864.30543 L 277.16044,864.30543 277.16044,855.36717 C 277.16044,844.09252 271.33021,838.36945 257.46196,838.36945 M 351.19588,848.14367 C 358.26933,848.14367 360.75576,850.24427 361.18445,854.53121 L 340.90723,854.53121 C 341.31449,850.24427 344.12243,848.14367 351.19588,848.14367 M 351.19588,838.36945 C 337.34907,838.36945 331.15444,844.09252 331.15444,855.36717 L 331.15444,863.44805 C 331.15444,874.7227 338.18502,880.44576 352.05327,880.44576 L 366.86465,880.44576 366.86465,870.67154 352.05327,870.67154 C 344.95839,870.67154 341.31449,868.59237 340.90723,864.30543 L 370.9158,864.30543 370.9158,855.36717 C 370.9158,844.09252 365.06413,838.36945 351.19588,838.36945 M 149.5597,848.14367 C 156.63315,848.14367 159.14101,850.24427 159.54827,854.53121 L 139.27104,854.53121 C 139.6783,850.24427 142.48625,848.14367 149.5597,848.14367 M 149.5597,838.36945 C 135.71288,838.36945 129.51826,844.09252 129.51826,855.36717 L 129.51826,863.44805 C 129.51826,874.7227 136.54884,880.44576 150.41709,880.44576 L 165.2499,880.44576 165.2499,870.67154 150.41709,870.67154 C 143.34364,870.67154 139.6783,868.59237 139.27104,864.30543 L 169.30105,864.30543 169.30105,855.36717 C 169.30105,844.09252 163.42795,838.36945 149.5597,838.36945 M 123.21646,824.20112 C 124.30963,825.29429 124.86693,826.64467 124.86693,828.18797 124.86693,829.7527 124.30963,831.10309 123.21646,832.19626 122.12329,833.28943 120.79434,833.84673 119.25104,833.84673 117.6863,833.84673 116.35735,833.28943 115.26418,832.19626 114.17101,831.10309 113.63515,829.7527 113.63515,828.18797 113.63515,826.64467 114.17101,825.29429 115.26418,824.20112 116.35735,823.10795 117.70774,822.55065 119.25104,822.55065 120.7729,822.55065 122.12329,823.10795 123.21646,824.20112 M 114.4711,838.36945 124.18102,838.36945 124.18102,880.44576 114.4711,880.44576 114.4711,838.36945 Z M 79.382508,848.31515 79.382508,839.22684 C 79.382508,834.83273 82.44767,832.06765 88.577993,832.06765 94.77262,832.06765 97.752043,834.83273 97.752043,839.22684 97.752043,844.17826 95.351357,846.57894 90.20703,846.81472 85.341354,847.02907 81.783194,847.52207 79.382508,848.31515 M 90.571419,856.22455 C 98.094998,856.22455 101.76033,858.60381 101.76033,863.49092 101.76033,868.33516 98.094998,870.67154 90.571419,870.67154 L 79.382508,870.67154 79.382508,862.6764 C 79.768333,858.38946 83.433666,856.26742 90.571419,856.22455 M 85.727178,822.50778 C 75.074134,823.75099 69.672592,829.38831 69.672592,839.22684 L 69.672592,861.86188 C 69.651157,862.39775 69.629722,862.93361 69.629722,863.49092 L 69.672592,880.44576 90.571419,880.44576 C 104.43966,880.44576 111.47024,874.74413 111.47024,863.49092 111.47024,857.01764 109.13386,852.32344 104.48253,849.53693 106.45452,846.87903 107.46195,843.42804 107.46195,839.22684 107.46195,829.38831 102.06041,823.75099 91.407373,822.50778 88.06356,822.22913 85.727178,822.50778 85.727178,822.50778" />
  </g>
</svg>

<svg xmlns="http://www.w3.org/2000/svg" height="223.01" viewBox="0 0 599.99998 223.00658"><defs><clipPath><path d="m114.98 86.28h27.992v10.404h-27.992v-10.404"/></clipPath><linearGradient x1="553.41" y1="903.86" x2="-127" y2="767.26" gradientUnits="userSpaceOnUse" id="0"><stop stop-color="#80d4ce"/><stop offset=".081" stop-color="#80d4ce"/><stop offset=".9" stop-color="#82b0e2"/><stop offset="1" stop-color="#82b0e2"/></linearGradient></defs><g transform="translate(-25.714-743.72)"><path d="m375.53 751.75c-14.49 5.38-27.651 13.247-39.42 23.707-11.553 10.267-20.877 22.12-27.929 35.474l-2.465-62.14h-.6-77.979-16.826l-21.11 47.48c-5.101-21.67-7.867-40.769-9.388-47.48h-13.29-78.75-.622l-61.43 212.27h.622 74.81 18.2l16.955-66.1 11.253 66.1h4.223 39.08 2.079l14.404-34.488 13.825-32.409 2.079 66.898h16.1 74.21.622l-1.243-31.32c7.07 8.981 16.08 16.869 27.03 23.642 7.202 4.287 15.476 7.524 24.779 9.86 9.281 2.315 19.1 3.472 29.43 3.472.836 0 1.65-.043 2.422-.064 9.05-.472 36.37-2.979 49.578-16.183 8.531 4.223 17.15 7.738 25.872 10.332 13.461 3.944 27.16 5.916 41.07 5.916 27.16 0 50.14-7.459 68.848-22.314 18.734-14.897 29.494-34.12 32.28-57.6 1.715-14.383-1.05-26.665-8.252-36.825-7.202-10.139-17.919-16.869-32.11-20.15-1.779-.386-4.351-.965-7.631-1.736-20.62-4.566-30.587-9.839-29.859-15.819.364-3.172 2.122-5.659 5.209-7.481 3.108-1.758 7.352-2.658 12.646-2.658 6.988 0 13.997 1.436 21.03 4.266 7.07 2.872 13.933 7.01 20.663 12.411l29.794-55.54c-11.253-6.473-22.549-11.296-33.953-14.49-11.403-3.215-23.24-4.823-35.389-4.823-26.515 0-48.785 7.181-66.791 21.499-11.04 8.724-19.14 19.08-24.457 31.02l4.994-42.05c-7.502-3.558-15.326-6.237-23.471-8.04-8.167-1.801-16.526-2.679-25.14-2.679-16.14 0-31.466 2.679-45.977 8.04m8.938 129.44c-5.252-6.087-7.181-14.34-5.895-25.14 1.329-11.318 5.616-20.08 13.01-26.793 7.416-6.666 16.355-9.924 27.351-9.924 7.03 0 13.632 1.458 19.634 4.33 4.501 2.143 8.938 5.294 13.354 9.324.579 10.932 3.858 20.556 9.796 28.615.686.986 1.436 1.908 2.208 2.808l-.021.021c.364.45.772.9 1.179 1.35v-.043c8.04 8.831 19.484 15.15 34.23 18.841 2.636.579 6.302 1.415 11.08 2.508 2.894.6 5.23 1.2 7.202 1.822 8.788 2.358 9.667 4.394 9.796 6.388.171 2.122-3.901 10.417-28.401 3.537-22.249-6.28-40.64-24.864-43.834-28.27l-1.5 1.029c-9.367 6.559-17.898 11.403-25.379 14.361-7.202 2.829-14.15 4.244-20.706 4.244-10.396 0-17.941-2.915-23.11-9" fill="url(#0)"/><path d="m271.03 828.68v7.609l-13.718-5.466-13.718 5.466v-7.609l13.718-5.466 13.718 5.466m-38.733 28.958c0 3.129-2.551 5.659-5.659 5.659-3.129 0-5.659-2.529-5.659-5.659 0-3.129 2.529-5.659 5.659-5.659 3.108 0 5.659 2.529 5.659 5.659m97.89-9.496h-.836c-7.524 0-11.189 2.358-11.189 7.223v25.08h-9.71v-25.08c0-11.275 7.03-16.998 20.899-16.998h.836v9.774m-28.83 22.528h4.844v9.774h-4.844c-13.868 0-20.899-5.723-20.899-16.998v-41.22h9.71v9.324c.171 4.544 3.815 6.773 11.189 6.773h.836v9.774h-.836c-4.416 0-8.167-.579-11.189-1.736v17.08c0 4.866 3.665 7.223 11.189 7.223m-86.15-15.304v25.08h-9.71v-25.08c0-4.866-3.665-7.223-11.189-7.223-7.352 0-11.02 2.251-11.189 6.859v25.443h-9.71v-42.08h9.71v1.758c3.02-1.179 6.773-1.758 11.189-1.758 13.868 0 20.899 5.723 20.899 16.998m42.25-7.223c7.07 0 9.56 2.101 9.967 6.388h-20.277c.407-4.287 3.237-6.388 10.31-6.388m0-9.774c-13.868 0-20.06 5.723-20.06 16.998v8.08c0 11.275 7.03 16.998 20.899 16.998h14.833v-9.774h-14.833c-7.07 0-10.739-2.079-11.146-6.366h30.01v-8.938c0-11.275-5.83-16.998-19.698-16.998m93.73 9.774c7.07 0 9.56 2.101 9.989 6.388h-20.277c.407-4.287 3.215-6.388 10.289-6.388m0-9.774c-13.847 0-20.04 5.723-20.04 16.998v8.08c0 11.275 7.03 16.998 20.899 16.998h14.811v-9.774h-14.811c-7.095 0-10.739-2.079-11.146-6.366h30.01v-8.938c0-11.275-5.852-16.998-19.72-16.998m-201.64 9.774c7.07 0 9.581 2.101 9.989 6.388h-20.277c.407-4.287 3.215-6.388 10.289-6.388m0-9.774c-13.847 0-20.04 5.723-20.04 16.998v8.08c0 11.275 7.03 16.998 20.899 16.998h14.833v-9.774h-14.833c-7.07 0-10.739-2.079-11.146-6.366h30.03v-8.938c0-11.275-5.873-16.998-19.741-16.998m-26.343-14.168c1.093 1.093 1.65 2.444 1.65 3.987 0 1.565-.557 2.915-1.65 4.01-1.093 1.093-2.422 1.65-3.965 1.65-1.565 0-2.894-.557-3.987-1.65-1.093-1.093-1.629-2.444-1.629-4.01 0-1.543.536-2.894 1.629-3.987 1.093-1.093 2.444-1.65 3.987-1.65 1.522 0 2.872.557 3.965 1.65m-8.745 14.168h9.71v42.08h-9.71v-42.08m-35.09 9.946v-9.09c0-4.394 3.065-7.159 9.195-7.159 6.195 0 9.174 2.765 9.174 7.159 0 4.951-2.401 7.352-7.545 7.588-4.866.214-8.424.707-10.825 1.5m11.189 7.909c7.524 0 11.189 2.379 11.189 7.266 0 4.844-3.665 7.181-11.189 7.181h-11.189v-7.995c.386-4.287 4.051-6.409 11.189-6.452m-4.844-33.717c-10.653 1.243-16.05 6.881-16.05 16.719v22.635c-.021.536-.043 1.072-.043 1.629l.043 16.955h20.899c13.868 0 20.899-5.702 20.899-16.955 0-6.473-2.336-11.167-6.988-13.954 1.972-2.658 2.979-6.109 2.979-10.31 0-9.839-5.402-15.476-16.05-16.719-3.344-.279-5.68 0-5.68 0" fill="#fff"/></g></svg>
